X: 200
%
U:~=!turn!
T: George the IVth's Welcome to Scotland
C:From Nicolson's Collection
O:Scotland
B:Keith Norman MacDonald : "The Skye collection of the best reels & strathspeys extant" : 1887
Z:Ralph Palmer
R:Reel
M:C
L:1/8
K:Bb
d | {/g}f2 dB {/g}f2 dB | A/B/c c>B AFF_A | GEEG FDDd | edcB AcF=e | {/g}f2 dB {/g}f2 dB |
A/B/c c>B AFF_A | GBAc Bdce | dfec B2 B || e | dfbf dfBd | Acfc AcF_A | GEEG FDDd |
edcB AcFe | dfbf dfBd | Acfc AcF_A | (G/A/B) (A/B/c) (B/c/d) (c/d/e ) | (d/e/f) (e/f/g) (f/g/a) (b/g/)=e :|


